X:19
T:19. Miss Hutton's Reel
M:2/4
L:1/16
Q:1/4=80
Z:Peter Dunk, VMP, 2011
K:D
d'2>a2 f>ea>f | g>fe>d ceea | d'2>a2 f>ea>f | c>de>f d2d2 :: D>FA>d f>ea>f | e>cA>f e>cAz |!
D>FA>d f>ea>f | g>ec>e d2 z2 :: a>fd'>c' b>ag>f | e>cA>f e>c HA F/ | D>EF>G A>df>d | g>ea>c d2d2 :|!

